src/main/resources/icons/DatabaseIcons/icons/materializedLog.svg

<svg xmlns="http://www.w3.org/2000/svg" width="16" height="16" viewBox="0 0 16 16">
  <path fill="#231F20" fill-opacity=".7" fill-rule="evenodd" d="M4.59977998,4.79964007 L2.99979412,11.9995765 L1.99979412,11.9995765 L1,8.0004 L2,8.0004 L2.47038235,9.88192941 L3.9997,3 L4.9997,3 L7.40025997,10.1992801 L9.0001,3 L10.0001,3 L12.4613385,10.3837154 L13.9996,4.9998 L15.0006,4.9998 L12.9998001,11.9991002 L11.9998,11.9991 L9.6001,4.8 L8.00033995,11.9989202 L8.0007,12 L7.5004,12 L7.0001,12 L7.00033995,11.9989202 L4.59977998,4.79964007 Z"/>
</svg>

<svg xmlns="http://www.w3.org/2000/svg" width="16" height="16" viewBox="0 0 16 16"><rect id="frame" width="16" height="16" fill="none"/><path fill="#231F20" fill-opacity=".7" fill-rule="evenodd" d="M4.6 4.8L3 12H2L1 8h1l.47 1.882L4 3h1l2.4 7.2L9 3h1l2.461 7.384L14 5h1l-2 7h-1L9.6 4.8 8 11.999V12H7v-.001l-2.4-7.2z"/></svg>
